X: 10576
T: Dot McKinnon's
R: reel
M: 4/4
K: Adorian
|:Beed edBG|EGAE GDDG|EAAG ABcA|Bded efed|
Beed edBA|EGAE GDDG|EAAG ABcA|BAGE A4:|
K: Emin
|:Beed edBA|bBaB gBfe|BdeB dAdA|fgfe fded|
Beed edBA|bBaB gBfe|Bded BAFA|dBAF E4:|

